X:48
T:Tea Pot, The
M:2/4
L:1/8
B:Thompson's Compleat Collection of 200 Favourite Country Dances, vol. 1 (London, 1757)
Z:Transcribed and edited by Fynnian Titford-Mock, 2007
Z:abc's:AK/Fiddler's Companion
K:F
f2 cA|FEFG|ABcd|B2 A2|gedc|dBAG|AFED|C4:|
|:c2 eB|A^FGA|Bcd_e|FEFA|Bcde|fcdB|AdBG|F4:|

